X: 36122
T: Scolding Wife, The
R: reel
M: 4/4
K: Dmajor
A3F|D2AD FDAG|F2AF dBAF|DEFD ADFA|B/c/dAF GBAF|
D2AD FDAG|F2AF dBAF|DEFD ADFA|B/c/dAF ~G3e|
f2dc dfaf|~g3f gbag|f~d3 defd|ecAF ~G3e|
f2dc dfaf|~g3f gbag|f/g/aec dfec|dcAF GBAF||

